svgs/sharp-regular/circle-u.svg

<svg xmlns="http://www.w3.org/2000/svg" viewBox="0 0 512 512"><!--! Font Awesome Pro 6.6.0 by @fontawesome - https://fontawesome.com License - https://fontawesome.com/license (Commercial License) Copyright 2024 Fonticons, Inc. --><path d="M256 48a208 208 0 1 1 0 416 208 208 0 1 1 0-416zm0 464A256 256 0 1 0 256 0a256 256 0 1 0 0 512zM192 168l0-24-48 0 0 24 0 120c0 61.9 50.1 112 112 112s112-50.1 112-112l0-120 0-24-48 0 0 24 0 120c0 35.3-28.7 64-64 64s-64-28.7-64-64l0-120z"/></svg>

<svg xmlns="http://www.w3.org/2000/svg" viewBox="0 0 512 512"><!--! Font Awesome Pro 6.4.0 by @fontawesome - https://fontawesome.com License - https://fontawesome.com/license (Commercial License) Copyright 2023 Fonticons, Inc. --><path d="M256 48a208 208 0 1 1 0 416 208 208 0 1 1 0-416zm0 464A256 256 0 1 0 256 0a256 256 0 1 0 0 512zM192 168V144H144v24V288c0 61.9 50.1 112 112 112s112-50.1 112-112V168 144H320v24V288c0 35.3-28.7 64-64 64s-64-28.7-64-64V168z"/></svg>
